!!!COM: Palestrina, Giovanni Perluigi da
!!!OPR: Missa Octavi toni
!!!OMD: Gloria
!!!OTL: coda
**kern	**kern	**kern	**kern	**kern	**kern
*Ibass	*Itenor	*Itenor	*Icalto	*Icant	*Icant
!Bassus	!Tenor 2	!Tenor 1	!Altus	!Cantus 2	!Cantus 1
*clefF4	*clefGv2	*clefGv2	*clefG2	*clefG2	*clefG2
*k[]	*k[]	*k[]	*k[]	*k[]	*k[]
*G:mix	*G:mix	*G:mix	*G:mix	*G:mix	*G:mix
*M3/2	*M3/2	*M3/2	*M3/2	*M3/2	*M3/2
=88	=88	=88	=88	=88	=88
2C	1c	2E	2e	2g	1r
2E	.	2G	2e	2g	.
2F	2r	2A	2c	2f	2r
=89	=89	=89	=89	=89	=89
2C	1r	2G	2c	2e	1r
2C	.	2G	2c	2e	.
2G	2r	2G	2B	2d	2r
=90	=90	=90	=90	=90	=90
2E	1r	2B	2e	2g	1r
2C	.	2c	2e	2g	.
2D	2r	2A	2d	2f#	2r
=91	=91	=91	=91	=91	=91
1GG	2G	4B	1d	1g	2dd
.	.	4B	.	.	.
.	2B	2d	.	.	2dd
2r	2c	2e	2g	2r	2cc
=92	=92	=92	=92	=92	=92
1r	2G	2d	2.g	1r	2b
.	2G	2d	.	.	2b
.	.	.	8f	.	.
.	.	.	8e	.	.
2r	2d	2d	2f	2r	2a
=93	=93	=93	=93	=93	=93
1r	2c	2e	2g	1r	2cc
.	2F	2f	2a	.	2cc
2r	2G	2d	2g	2r	2b
=94	=94	=94	=94	=94	=94
2C	1G	1c	1e	2g	1cc
2E	.	.	.	2g	.
2F	2A	2r	2c	2f	2r
=95	=95	=95	=95	=95	=95
1C	1G	2C	1e	1e	2g
.	.	2E	.	.	2g
2r	2A	2F	2c	2r	2f
=96	=96	=96	=96	=96	=96
2C	1G	1C	1c	2g	1e
2E	.	.	.	2g	.
2F	2r	2c	2A	2f	2a
=97	=97	=97	=97	=97	=97
2C	1G	1c	4c	2e	2g
.	.	.	4d	.	.
2C	.	.	4e	2e	2.g
.	.	.	4f	.	.
2GG	2G	[2B	2g	2d	.
.	.	.	.	.	4a
=98	=98	=98	=98	=98	=98
2GG	2G	2B]	2d	2g	2b
2C	2E	2c	2e	2g	2g
2D	2A	2A	2d	2f#	2dd
=99	=99	=99	=99	=99	=99
1GG	1G	2B	2d	[1.g	4b
.	.	.	.	.	4a
.	.	4d	2.B	.	4b
.	.	4c	.	.	4cc
2GG	2G	4B	.	.	2dd
.	.	4A	8c	.	.
.	.	.	8d	.	.
=100	=100	=100	=100	=100	=100
4C	2E	4G	1.e	1.g]	1.cc
4D	.	4F	.	.	.
4E	4C	4E	.	.	.
4F	4D	4D	.	.	.
2G	4E	2C	.	.	.
.	4F	.	.	.	.
=101	=101	=101	=101	=101	=101
2GG	1.G	2D	2d	[1.g	2b
1C	.	1E	1c	.	1cc
=102	=102	=102	=102	=102	=102
1.GG	1.G	1.D	1.d	1.g]	1.b
==	==	==	==	==	==
*-	*-	*-	*-	*-	*-
!!!CDT: 1525/^1526/-1594/2/2
!!!OCY: Italia
!!!AGN: Mass (Tenor)
!!!AST: renaissance, vocal
!!!ASW: Hymn
!!!PWK: Masses, Book 11
!!!RNB: Cadence finals: A,C
!!!YOR: Le Opere Complete, v. 28, p. 114
!!!YOO: Rome, Italy: Fratelli Scalera
!!!END: 1992//
!!!EED: John Miller
!!!YEC: Copyright 2000, John Miller
!!!YEN: United States of America
!!!YEM: Rights to all derivative electronic formats reserved.
!!!YEM: Refer to licensing agreement for further details.
!!!YEM: This file must be accompanied by the licensing agreement.
!!!YEM: A copy of the licensing agreement may be found at http://www.music-cog.ohio-state.edu/HumdrumDatabases/Palestrina/license.txt
!!!EMD: converted to Humdrum by Bret Aarden
